!!!!SEGMENT: pl-sa--231-a-vi-35--004_anonim--litania-sancta-maria.krn
!!!cenid: 17xx:1399
!!!COM: Anonim
!!!COM-rismID: pe30004985
!!!CDT:
!!!CNT:
!!!OPR: Litania
!!!OTL: Sancta Maria
!!!OMV: 004
!!!PDT:
!!!AGN: Sacred; Mass
!!!SMS-siglum: PL-SA
!!!SMS-shelfmark: 231/A VI 35
!!!SMS-shelfwork: 001-004 M
!!!SMS-variant:
!!!SMS-altvar:
!!!NIFC-rismSourceID: 1001039070
!!!NIFC-islandoraID:
!!!URL-pdf-islandora:
!!!URL-scan: https://bc.bdsandomierz.pl/dlibra/publication/1585/edition/1553/content @EN{Scan on Cyfrowa Biblioteka Diecezjalna w Sandomierzu} @PL{Skany w portalu Cyfrowa Biblioteka Diecezjalna w Sandomierzu}
!!!ONB-nifc: UWAGA: części Litanii: 1. Sinfonia, 2. Kyrie, 3. Pater de caelis, 4. Sancta Maria, 5. Mater amabilis, 6. Speculum iustitiae, 7. Rosa mystica, 8. Salus infirmorum, 9. Regina angelorum, 10. Agnus Dei. Uwaga: wpisać oba teksty.
!!!AIN: 1 bass 2 cor 1 oboe 1 organ 1 soprn 1 tenor 2 violn
!!!key: G
**kern	**kern	**dynam	**kern	**dynam	**kern	**text	**text	**kern	**text	**text	**kern	**text	**text	**kern	**dynam	**kern	**dynam	**kern	**dynam
*	*group3	*	*group3	*	*group2	*	*	*group2	*	*	*group2	*	*	*group1	*	*group1	*	*	*
*part9	*part8	*part8	*part7	*part7	*part6	*part6	*part6	*part5	*part5	*part5	*part4	*part4	*part4	*part3	*part3	*part2	*part2	*part1	*part1
*staff9	*staff8	*	*staff7	*	*staff6	*staff6	*staff6	*staff5	*staff5	*staff5	*staff4	*staff4	*staff4	*staff3	*	*staff2	*	*staff1	*
*I"Fondamento.	*I"Violino ſecundo.	*	*I"Violino Primo	*	*I"Baſso.	*	*	*I"Tenore	*	*	*I"Canto.	*	*	*I"Cornu ſecundo ex. G.	*	*I"Cornu Primo ex G.	*	*I"Oböa Prima.	*
*I'bc	*I'vl 2	*	*I'vl 1	*	*I'B	*	*	*I'T	*	*	*I'S	*	*	*I'cor 2 in G	*	*I'cor 1 in G	*	*I'ob 1	*
*Iorgan	*Ivioln	*	*Ivioln	*	*Ibass	*	*	*Itenor	*	*	*Isoprn	*	*	*Icor	*	*Icor	*	*Ioboe	*
*ICklav	*ICstr	*	*ICstr	*	*ICvox	*	*	*ICvox	*	*	*ICvox	*	*	*ICbras	*	*ICbras	*	*ICww	*
*IGcont	*	*	*	*	*	*	*	*	*	*	*	*	*	*	*	*	*	*	*
*clefF4	*clefG2	*	*clefG2	*	*clefF4	*	*	*clefC4	*	*	*clefC1	*	*	*clefG2	*	*clefG2	*	*clefG2	*
*	*	*	*	*	*	*	*	*	*	*	*	*	*	*ITrd3c5	*	*ITrd3c5	*	*	*
*k[f#]	*k[f#]	*	*k[f#]	*	*k[f#]	*	*	*k[f#]	*	*	*k[f#]	*	*	*k[f#]	*	*k[f#]	*	*k[f#]	*
*G:	*G:	*	*G:	*	*G:	*	*	*	*	*	*G:	*	*	*	*	*	*	*G:	*
*M3/4	*M3/4	*	*M3/4	*	*M3/4	*	*	*M3/4	*	*	*M3/4	*	*	*M3/4	*	*M3/4	*	*M3/4	*
*	*2\right	*	*right	*	*	*	*	*2\right	*	*	*2\right	*	*	*2\right	*	*2\right	*	*2\right	*
=1	=1	=1	=1	=1	=1	=1	=1	=1	=1	=1	=1	=1	=1	=1	=1	=1	=1	=1	=1
!	!	!	!LO:TX:t=P:problem=mixed beam	!	!	!	!	!	!	!	!	!	!	!	!	!	!	!LO:TX:t=P:problem=mixed beam	!
!LO:TX:i:a:t=Allo&colon;	!LO:TX:i:a:t=Allo&colon;	!	!LO:TX:i:a:t=Allo&colon;	!	!LO:TX:i:a:t=Allo&colon;	!	!	!LO:TX:i:a:t=Allo&colon;	!	!	!LO:TX:i:a:t=Allo	!	!	!LO:TX:i:a:t=Allo	!	!LO:TX:i:a:t=Allo	!	!LO:TX:i:a:t=Allo	!
8G\L	8b\L	.	8gg\L	.	8G\L	San-	Je-	(8B\L	San-	Je-	4gg\	San-	Je-	4g\	.	4b\	.	8gg\L	.
8A\	8cc\	.	8g/	.	8A\J	.	-su	8c\J)	.	.	.	.	.	.	.	.	.	8g/	.
8B\	8dd\	.	8g/	.	8B\L	-cta	fi-	(8d\L	-cta	.	4gg\	-cta	.	4g\	.	4b\	.	8g/	.
8A\	8cc\	.	8g/	.	8A\J	.	-li	8c\J)	.	.	.	.	.	.	.	.	.	8g/	.
8B\	8dd\	.	8g/	.	8B\L	Ma-	de-	(8d\L	Ma-	.	4gg\	Ma-	.	4g\	.	4b\	.	8g/	.
8c\J	8ee\J	.	8gg\J	.	8c\J	.	i	8e\J)	.	.	.	.	.	.	.	.	.	8gg\J	.
=2	=2	=2	=2	=2	=2	=2	=2	=2	=2	=2	=2	=2	=2	=2	=2	=2	=2	=2	=2
4d\	(4b\	.	(4ggT\	.	4d\	-ri-	vi-	4B\	-ri-	.	4gg\	-ri-	.	4g\	.	4b\	.	4ggT\	.
4D\	8a\L)	.	8ff#\L)	.	4D\	-a	-vi	4A\	-a	-su	4ff#\	-a	-su	4d/	.	4a\	.	8ff#\L	.
.	8a\	.	8dd\	.	.	.	.	.	.	.	.	.	.	.	.	.	.	8dd\	.
4r	8dd\	.	8ff#\	.	4r	.	.	4r	.	.	4r	.	.	4r	.	4r	.	8ff#\	.
.	8ff#\J	.	8aa\J	.	.	.	.	.	.	.	.	.	.	.	.	.	.	8aa\J	.
=3	=3	=3	=3	=3	=3	=3	=3	=3	=3	=3	=3	=3	=3	=3	=3	=3	=3	=3	=3
!	!LO:TX:t=P:problem=mixed beam	!	!	!	!	!	!	!	!	!	!	!	!	!	!	!	!	!	!
8D\L	8aa\L	.	8ccc\L	.	8D\	San-	fi-	8A\	San-	fi-	8cc\	San-	fi-	4d/	.	4a\	.	8ccc\L	.
8E\	8a/	.	8cc\	.	8E\	-cta	-li	8A\	-cta	-li	8cc\	-cta	-li	.	.	.	.	8cc\	.
8F#\	8a/	.	8cc\	.	8F#\L	De-	de-	4A\	De-	De-	4cc\	De-	de-	4d/	.	4a\	.	8cc\	.
8D\	8a/	.	8cc\	.	8D\J	.	.	.	.	.	.	.	.	.	.	.	.	8cc\	.
!	!	!	!	!	!	!	!	!	!	!	!	!	!	!LO:TX:t=P:problem=mixed beam	!	!	!	!	!
8E\	8a/	.	8cc\	.	8E\L	-i	-i	4A\	-i	-i	4cc\	-i	-i	8d/L	.	8a\L	.	8cc\	.
8F#\J	8a/J	.	8cc\J	.	8F#\J	.	.	.	.	.	.	.	.	8a\J	.	8cc\J	.	8cc\J	.
=4	=4	=4	=4	=4	=4	=4	=4	=4	=4	=4	=4	=4	=4	=4	=4	=4	=4	=4	=4
4G\	(4a/	.	(4ccT\	.	8G\	Ge-	vi-	8A\	ge-	vi-	8cc\	Ge-	vi-	4a\	.	4cc\	.	4ccT\	.
.	.	.	.	.	8G\	-ni-	.	8A\	-ni-	.	8cc\	-ni-	.	.	.	.	.	.	.
4GG/	16g/LL)	.	16b\LL)	.	4GG/	-trix	-vi	4G/	-trix	-vi	4b\	-trix	-vi	4g\	.	4b\	.	16b\LL	.
.	16g/	.	16g\	.	.	.	.	.	.	.	.	.	.	.	.	.	.	16g\	.
.	16a/	.	16a\	.	.	.	.	.	.	.	.	.	.	.	.	.	.	16a\	.
.	16b/JJ	.	16b\JJ	.	.	.	.	.	.	.	.	.	.	.	.	.	.	16b\JJ	.
4r	16cc\LL	.	16cc\LL	.	4r	.	.	4r	.	.	4r	.	.	4r	.	4r	.	16cc\LL	.
.	16dd\	.	16dd\	.	.	.	.	.	.	.	.	.	.	.	.	.	.	16dd\	.
.	16ee\	.	16ee\	.	.	.	.	.	.	.	.	.	.	.	.	.	.	16ee\	.
.	16ff#\JJ	.	16ff#\JJ	.	.	.	.	.	.	.	.	.	.	.	.	.	.	16ff#\JJ	.
=5	=5	=5	=5	=5	=5	=5	=5	=5	=5	=5	=5	=5	=5	=5	=5	=5	=5	=5	=5
8G\L	8gg\	.	8gg\	.	8G\L	San-	Je-	4B\	San-	Je-	4dd\	San-	Je-	4g\	.	4g\	.	8gg\	.
8A\	4b\	.	4dd\	.	8A\J	.	.	.	.	.	.	.	.	.	.	.	.	4dd\	.
8B\	.	.	.	.	8B\L	-cta	-su	4B\	-cta	-su	4dd\	-cta	-su	8g\L	.	8g\L	.	.	.
8G\	4b\	.	4dd\	.	8G\J	.	.	.	.	.	.	.	.	8g\	.	8g\	.	4dd\	.
8A\	.	.	.	.	8A\	Vir-	po-	8B\	Vir-	po-	8dd\	Vir-	po-	8g\	.	8g\	.	.	.
8B\J	8dd\	.	8ffn\	.	8B\	-go	-ten-	8d\	-go	-ten-	8ffn\	-go	-[ten]	8g\J	.	8g\J	.	8ffn\	.
!	!	!	!	!	!	!	!	!LO:LB:g=original	!	!	!	!	!	!	!	!	!	!	!
=6	=6	=6	=6	=6	=6	=6	=6	=6	=6	=6	=6	=6	=6	=6	=6	=6	=6	=6	=6
!LO:TX:t=P:problem=mixed beam	!	!	!LO:SIC:v:s=(4ffn\	!	!	!	!	!	!	!	!	!	!	!	!	!	!	!LO:SIC:v:s=(4ff\	!
8c\L	(4dd\	.	(4ff#\	.	8c\	Vir-	-tiſ-	8d\	Vir-	-tiſ-	8ff#\	Vir-	tiſ-	4g\	.	4g\	.	(4ff#\	.
8C/	.	.	.	.	8c\	-gi-	-si-	8d\	-gi-	-si-	8ff#\	-gi-	-si-	.	.	.	.	.	.
8C/	8cc\L)	.	8ee\L)	.	8C/	-num	-me	8c\	-num	-me	8ee\	-num	-me	4r	.	4r	.	8ee\L)	.
8A\	8cc#X\	.	8ee\	.	8A\	o-	.	8c#X\	o-	.	8ee\	o-	.	.	.	.	.	8ee\	.
8B\	8cc#\	.	8ee\	.	8B\	-ra	mi-	8c#\	-ra	mi-	8ee\	-ra	mi-	8r	.	8r	.	8ee\	.
8c#X\J	8ee\J	.	8gg\J	.	8c#X\	pro	-se-	8e\	pro	-se-	8gg\	pro	-se-	8a\	.	8a\	.	8gg\J	.
=7	=7	=7	=7	=7	=7	=7	=7	=7	=7	=7	=7	=7	=7	=7	=7	=7	=7	=7	=7
8d\L	(4ee\	.	(4gg\	.	4d\	no-	-re-	4e\	no-	-re-	4gg\	no-	-re-	4d/	.	4a\	.	(4gg\	.
8D\	.	.	.	.	.	.	.	.	.	.	.	.	.	.	.	.	.	.	.
8D\	8dd\L)	.	8ff#X\L)	.	8D\	-biſ	-re	8d\	-biſ	-re	8ff#X\	-bis	-re	4r	.	4r	.	8ff#X\L)	.
8B\	8dd#X\	.	8ff#\	.	8B\	o-	.	8d#X\	O-	.	8ff#\	o-	.	.	.	.	.	8ff#\	.
8c#X\	8dd#\	.	8ff#\	.	8c#X\	-ra	mi-	8d#\	-ra	mi-	8ff#\	-ra	mi-	8r	.	8r	.	8ff#\	.
8d#X\J	8ff#\J	.	8aa\J	.	8d#X\	pro	-se-	8f#\	pro	-se-	8aa\	pro	-se-	8b\	.	8b\	.	8aa\J	.
!	!	!	!	!	!LO:LB:g=original	!	!	!	!	!	!	!	!	!	!	!	!	!	!
=8	=8	=8	=8	=8	=8	=8	=8	=8	=8	=8	=8	=8	=8	=8	=8	=8	=8	=8	=8
8e\L	(4ff#\	.	(4aa\	.	4e\	no-	.	4f#\	no-	-re-	4aa\	no-	-re-	4b\	.	4b\	.	(4aa\	.
8E\	.	.	.	.	.	.	.	.	.	.	.	.	.	.	.	.	.	.	.
8E\	8ee\L)	.	8gg\L)	.	8E\	-bis	.	8e\	-bis	-re	8gg\	-biſ	-[re]	4r	.	4r	.	8gg\L)	.
8Cn\	8ee\	.	8gg\	.	8Cn\	o-	.	8e\	O-	.	8gg\	o-	.	.	.	.	.	8gg\	.
8Dn\	8ee\	.	8gg\	.	8Dn\	-ra	.	8e\	-ra	mi-	8gg\	-ra	.	4r	.	4r	.	8gg\	.
!	!	!	!	!	!	!	!	!	!	!	!LO:TX:t=P:problem=niekompletny takt (defekt źródła), brak kreski taktowej	!	!	!	!	!	!	!	!
8E\J	8gg\J	.	8bb\J	.	8E\	pro	-re	8G/	pro	-se-	8b\	[pro]	.	.	.	.	.	8bb\J	.
!	!	!	!	!	!	!	!	!	!	!	!LO:LB:g=original	!	!	!	!	!	!	!	!
=9	=9	=9	=9	=9	=9	=9	=9	=9	=9	=9	=9	=9	=9	=9	=9	=9	=9	=9	=9
8F#\L	(4gg\	.	(4bb\	.	4F#\	no-	no-	4G/	no-	-re-	4b\	no-	no-	4r	.	4r	.	(4bb\	.
8D\	.	.	.	.	.	.	.	.	.	.	.	.	.	.	.	.	.	.	.
8D\	8ff#\L)	.	8aa\L)	.	8D\	-biſ	-bis	8F#/	-biſ	-re	8a\	-biſ	-bis	4r	.	4r	.	8aa\L)	.
8D\	8ff#\	.	8aa\	.	8D\	o-	.	8F#/	o-	.	8a\	o-	.	.	.	.	.	8aa\	.
8E\	8ff#\	.	8aa\	.	8E\	-ra	mi-	8F#/	-ra	mi-	8a\	-ra	mi-	8r	.	8r	.	8aa\	.
8F#\J	8aa\J	.	8ccc\J	.	8F#\	pro	-se-	8A/	pro	-se-	8cc\	pro	-se-	8d/	.	8a\	.	8ccc\J	.
!	!	!	!	!	!	!	!	!LO:LB:g=original	!	!	!	!	!	!	!	!	!	!LO:LB:g=original	!
=10	=10	=10	=10	=10	=10	=10	=10	=10	=10	=10	=10	=10	=10	=10	=10	=10	=10	=10	=10
!LO:TX:t=P:problem=mixed beam	!	!	!	!	!	!	!	!	!	!	!	!	!	!	!	!	!	!	!
8G\L	(4aa\	.	(4ccc\	.	4G\	no-	-re-	4A\	no-	-re-	4cc\	no-	-re-	4d/	.	4a\	.	(4ccc\	.
8GG/	.	.	.	.	.	.	.	.	.	.	.	.	.	.	.	.	.	.	.
8GG/	8gg\L)	.	8bb\L)	.	8GG/	-biſ	-re-	8G/	-biſ	-re	8b\	-biſ	-re	4g\	.	4b\	.	8bb\L)	.
!	!	!	!	!	!LO:N:vis=8.	!	!	!	!	!	!	!	!	!	!	!	!	!	!
8G\	8dd\	.	16bb\L	.	8G\	o-	.	8B\	O-	.	8ee\	o-	.	.	.	.	.	16bb\L	.
.	.	.	16aa\JJ	.	.	.	.	.	.	.	.	.	.	.	.	.	.	16aa\JJ	.
8G\	8b\	.	16gg\LL	.	8G\	-ra	.	8B\	-ra	no-	8ee\	-ra	.	8r	.	8r	.	16gg\LL	.
.	.	.	16ff#\	.	.	.	.	.	.	.	.	.	.	.	.	.	.	16ff#\	.
8G\J	8b\J	.	16ee\	.	8G\	pro	-re	8B\	pro	.	8dd\	pro	.	8g\	.	8b\	.	16ee\	.
.	.	.	16dd\JJ	.	.	.	.	.	.	.	.	.	.	.	.	.	.	16dd\JJ	.
!LO:LB:g=original	!LO:LB:g=original	!	!LO:LB:g=original	!	!	!	!	!	!	!	!	!	!	!	!	!	!	!	!
=11	=11	=11	=11	=11	=11	=11	=11	=11	=11	=11	=11	=11	=11	=11	=11	=11	=11	=11	=11
4A\	8e/L	.	8cc#X\L	.	4A\	no-	no-	4E/	no-	.	8cc#X\L	no-	no-	4a\	.	4a\	.	8cc#X\L	.
.	8d/J	.	8b\J	.	.	.	.	.	.	.	8b\J	.	.	.	.	.	.	8b\J	.
4AA/	16c#X/LL	.	16a\LL	.	4AA/	-bis	-bis	4E/	-bis	-bis	4a\	-bis	-bis	4a\	.	4a\	.	16a\LL	.
.	16a/	.	16a\	.	.	.	.	.	.	.	.	.	.	.	.	.	.	16a\	.
.	16cc#X/	.	16cc#X\	.	.	.	.	.	.	.	.	.	.	.	.	.	.	16cc#\	.
.	16ee/JJ	.	16ee\JJ	.	.	.	.	.	.	.	.	.	.	.	.	.	.	16ee\JJ	.
4r	4aa\	.	4aa\	.	4r	.	.	4r	.	.	4r	.	.	4r	.	4r	.	4aa\	.
=12	=12	=12	=12	=12	=12	=12	=12	=12	=12	=12	=12	=12	=12	=12	=12	=12	=12	=12	=12
!	!	!	!	!	!	!	!	!	!	!	!	!	!	!	!	!LO:TX:t=P:problem=2\right&colon; global	!	!	!
8D\L	16dd\LL	.	16dd\LL	.	8D\L	O-	mi-	2.A\	O-	mi-	2.ff#\	o-	[mi-	2.d/	.	[2.a\	.	[2.ff#\	.
.	16ff#\	.	16ddd\	.	.	.	.	.	.	.	.	.	.	.	.	.	.	.	.
8d\	16dd\	.	16dd\	.	8d\	.	.	.	.	.	.	.	.	.	.	.	.	.	.
.	16ff#\JJ	.	16ddd\JJ	.	.	.	.	.	.	.	.	.	.	.	.	.	.	.	.
8c#X\	16dd\LL	.	16dd\LL	.	8c\	.	.	.	.	.	.	.	.	.	.	.	.	.	.
.	16ff#\	.	16ddd\	.	.	.	.	.	.	.	.	.	.	.	.	.	.	.	.
8B\	16dd\	.	16dd\	.	8B\	.	.	.	.	.	.	.	.	.	.	.	.	.	.
.	16ff#\JJ	.	16ddd\JJ	.	.	.	.	.	.	.	.	.	.	.	.	.	.	.	.
8A\	16dd\LL	.	16dd\LL	.	8A\	.	.	.	.	.	.	.	.	.	.	.	.	.	.
.	16ff#\	.	16ddd\	.	.	.	.	.	.	.	.	.	.	.	.	.	.	.	.
8G\J	16dd\	.	16dd\	.	8G\J	.	.	.	.	.	.	.	.	.	.	.	.	.	.
.	16ff#\JJ	.	16ddd\JJ	.	.	.	.	.	.	.	.	.	.	.	.	.	.	.	.
!	!	!	!	!	!	!	!	!	!	!	!	!	!	!LO:LB:g=original	!	!	!	!	!
=13	=13	=13	=13	=13	=13	=13	=13	=13	=13	=13	=13	=13	=13	=13	=13	=13	=13	=13	=13
8F#\L	16dd\LL	.	16dd\LL	.	8F#\L	-ra	-se-	2.A\	-ra	-se-	2.ff#\	-ra	-se]-	2.d/	.	2.a\]	.	2.ff#\_	.
.	16ff#\	.	16ddd\	.	.	.	.	.	.	.	.	.	.	.	.	.	.	.	.
8B\	16dd\	.	16dd\	.	8B\	.	.	.	.	.	.	.	.	.	.	.	.	.	.
.	16ff#\JJ	.	16ddd\JJ	.	.	.	.	.	.	.	.	.	.	.	.	.	.	.	.
8A\	16dd\LL	.	16dd\LL	.	8A\	.	.	.	.	.	.	.	.	.	.	.	.	.	.
.	16ff#\	.	16ddd\	.	.	.	.	.	.	.	.	.	.	.	.	.	.	.	.
8G\	16dd\	.	16dd\	.	8G\	.	.	.	.	.	.	.	.	.	.	.	.	.	.
.	16ff#\JJ	.	16ddd\JJ	.	.	.	.	.	.	.	.	.	.	.	.	.	.	.	.
8F#\	16dd\LL	.	16dd\LL	.	8F#\	.	.	.	.	.	.	.	.	.	.	.	.	.	.
.	16ff#\	.	16ddd\	.	.	.	.	.	.	.	.	.	.	.	.	.	.	.	.
8E\J	16dd\	.	16dd\	.	8E\J	.	.	.	.	.	.	.	.	.	.	.	.	.	.
.	16ff#\JJ	.	16ddd\JJ	.	.	.	.	.	.	.	.	.	.	.	.	.	.	.	.
!	!	!	!	!	!	!	!	!	!	!	!	!	!	!	!	!LO:LB:g=original	!	!	!
=14	=14	=14	=14	=14	=14	=14	=14	=14	=14	=14	=14	=14	=14	=14	=14	=14	=14	=14	=14
!	!	!	!LO:TX:t=P:problem=mixed beam	!	!	!	!	!	!	!	!	!	!	!	!	!	!	!	!
8D\L	16d/LL	.	16d/LL	.	8D\L	o-	-re-	2.A\	O-	-re-	2.ff#\	O-	-re-	4d/	.	4a\	.	2.ff#\_	.
.	16f#/	.	16dd\	.	.	.	.	.	.	.	.	.	.	.	.	.	.	.	.
8B\	16d/	.	16d/	.	8B\	.	.	.	.	.	.	.	.	.	.	.	.	.	.
.	16f#/JJ	.	16dd\JJ	.	.	.	.	.	.	.	.	.	.	.	.	.	.	.	.
!	!	!	!LO:TX:t=P:problem=mixed beam	!	!	!	!	!	!	!	!	!	!	!	!	!	!	!	!
8A\	16d/LL	.	16d/LL	.	8A\	.	.	.	.	.	.	.	.	4r	.	4r	.	.	.
.	16f#/	.	16dd\	.	.	.	.	.	.	.	.	.	.	.	.	.	.	.	.
8G\	16d/	.	16d/	.	8G\	.	.	.	.	.	.	.	.	.	.	.	.	.	.
.	16f#/JJ	.	16dd\JJ	.	.	.	.	.	.	.	.	.	.	.	.	.	.	.	.
!	!	!	!LO:TX:t=P:problem=mixed beam	!	!	!	!	!	!	!	!	!	!	!	!	!	!	!	!
8F#\	16d/LL	.	16d/LL	.	8F#\	.	.	.	.	.	.	.	.	4r	.	4r	.	.	.
.	16f#/	.	16dd\	.	.	.	.	.	.	.	.	.	.	.	.	.	.	.	.
8E\J	16d/	.	16d/	.	8E\J	.	.	.	.	.	.	.	.	.	.	.	.	.	.
.	16f#/JJ	.	16dd\JJ	.	.	.	.	.	.	.	.	.	.	.	.	.	.	.	.
!	!	!	!	!	!LO:LB:g=original	!	!	!	!	!	!	!	!	!	!	!	!	!	!
=15	=15	=15	=15	=15	=15	=15	=15	=15	=15	=15	=15	=15	=15	=15	=15	=15	=15	=15	=15
!	!	!	!LO:TX:t=P:problem=mixed beam	!	!	!	!	!	!	!	!	!	!	!	!	!	!	!	!
8D\L	16d/LL	.	16d/LL	.	8D\L	-ra	-ne	2.A\	-ra	-re	2.ff#\	-ra	-re	4d/	.	4a\	.	2.ff#\_	.
.	16f#/	.	16dd\	.	.	.	.	.	.	.	.	.	.	.	.	.	.	.	.
!LO:TX:t=P:problem=8A poprawione na 8G	!	!	!	!	!	!	!	!	!	!	!	!	!	!	!	!	!	!	!
8G\	16d/	.	16d/	.	8G\	.	.	.	.	.	.	.	.	.	.	.	.	.	.
.	16f#/JJ	.	16dd\JJ	.	.	.	.	.	.	.	.	.	.	.	.	.	.	.	.
!LO:TX:t=P:problem=8G poprawione na 8F#	!	!	!LO:TX:t=P:problem=mixed beam	!	!	!	!	!	!	!	!	!	!	!	!	!	!	!	!
8F#\	16d/LL	.	16d/LL	.	8F#\	.	.	.	.	.	.	.	.	4r	.	4r	.	.	.
.	16f#/	.	16dd\	.	.	.	.	.	.	.	.	.	.	.	.	.	.	.	.
8E\	16d/	.	16d/	.	8E\	.	.	.	.	.	.	.	.	.	.	.	.	.	.
.	16f#/JJ	.	16dd\JJ	.	.	.	.	.	.	.	.	.	.	.	.	.	.	.	.
!	!	!	!LO:TX:t=P:problem=mixed beam	!	!	!	!	!	!	!	!	!	!	!	!	!	!	!	!
8D\	16d/LL	.	16d/LL	.	8D\	.	.	.	.	.	.	.	.	4r	.	4r	.	.	.
.	16f#/	.	16dd\	.	.	.	.	.	.	.	.	.	.	.	.	.	.	.	.
8C#X\J	16d/	.	16d/	.	8C#X\J	.	.	.	.	.	.	.	.	.	.	.	.	.	.
.	16f#/JJ	.	16dd\JJ	.	.	.	.	.	.	.	.	.	.	.	.	.	.	.	.
=16	=16	=16	=16	=16	=16	=16	=16	=16	=16	=16	=16	=16	=16	=16	=16	=16	=16	=16	=16
!	!LO:TX:t=P:problem=mixed beam	!	!LO:TX:t=P:problem=mixed beam	!	!	!	!	!	!	!	!	!	!	!	!	!	!	!	!
8D\L	8d/L	.	8d/L	.	8D\L	pro	no-	4A\	pro	no-	4ff#\	pro	no-	4d/	.	4a\	.	4ff#\]	.
8F#\J	8ff#\J	.	8ddd\J	.	8F#\J	.	.	.	.	.	.	.	.	.	.	.	.	.	.
!	!LO:SIC:v:s=4cc#\	!	!	!	!	!	!	!	!	!	!	!	!	!	!	!	!	!	!
4A\	4cc\	.	4ee\	.	4A\	no-	.	2c#X\	no-	.	2ee\	no-	.	4a\	.	4a\	.	4ee\	.
4AA/	4ee\	.	4ccc#X\	.	4AA/	.	.	.	.	.	.	.	.	4a\	.	4a\	.	4ee\	.
=17	=17	=17	=17	=17	=17	=17	=17	=17	=17	=17	=17	=17	=17	=17	=17	=17	=17	=17	=17
!LO:TX:i:a:t=Solo	!	!	!	!	!	!	!	!	!	!	!	!	!	!	!	!	!	!	!
4D\	4ff#\	.	8ddd\	.	4D\	-bis	-bis	4d\	-biſ	-biſ	4ff#\	-biſ	-bis	4d/	.	4a\	.	4ff#\	.
.	.	.	4aa\	.	.	.	.	.	.	.	.	.	.	.	.	.	.	.	.
4F#\	4dd\	.	.	.	4r	.	.	4r	.	.	4r	.	.	4r	.	4r	.	4r	.
.	.	.	(8cccn\L	.	.	.	.	.	.	.	.	.	.	.	.	.	.	.	.
4F#\	4dd\	.	8bb\	.	4r	.	.	4r	.	.	4r	.	.	4r	.	4r	.	4r	.
.	.	.	8aa#X\J)	.	.	.	.	.	.	.	.	.	.	.	.	.	.	.	.
!	!	!	!LO:LB:g=original	!	!	!	!	!	!	!	!	!	!	!	!	!	!	!	!
=18	=18	=18	=18	=18	=18	=18	=18	=18	=18	=18	=18	=18	=18	=18	=18	=18	=18	=18	=18
4G\	4dd\	.	8bb\	.	2.r	.	.	2.r	.	.	2.r	.	.	4r	.	4r	.	4r	.
.	.	.	4dd#X\	.	.	.	.	.	.	.	.	.	.	.	.	.	.	.	.
4G\	4b/	.	.	.	.	.	.	.	.	.	.	.	.	4r	.	4r	.	4r	.
.	.	.	8ee\	.	.	.	.	.	.	.	.	.	.	.	.	.	.	.	.
.	8qqf#/	.	8qqddn/	.	.	.	.	.	.	.	.	.	.	.	.	.	.	.	.
4A\	4e/	.	4cc#X\	.	.	.	.	.	.	.	.	.	.	8a\L	.	8a\L	.	4gg\	.
.	.	.	.	.	.	.	.	.	.	.	.	.	.	8a\J	.	8a\J	.	.	.
=19	=19	=19	=19	=19	=19	=19	=19	=19	=19	=19	=19	=19	=19	=19	=19	=19	=19	=19	=19
4D\	4f#/	.	8dd\	.	2.r	.	.	2.r	.	.	2.r	.	.	4d/	.	4a\	.	4ff#\	.
.	.	.	4aa\	.	.	.	.	.	.	.	.	.	.	.	.	.	.	.	.
4F#\	4dd\	.	.	.	.	.	.	.	.	.	.	.	.	4r	.	4r	.	4r	.
.	.	.	(8cccn\L	.	.	.	.	.	.	.	.	.	.	.	.	.	.	.	.
4F#\	4dd\	.	8bb\	.	.	.	.	.	.	.	.	.	.	4r	.	4r	.	4r	.
.	.	.	8aa#X\J)	.	.	.	.	.	.	.	.	.	.	.	.	.	.	.	.
!	!LO:LB:g=original	!	!	!	!	!	!	!	!	!	!	!	!	!	!	!	!	!	!
=20	=20	=20	=20	=20	=20	=20	=20	=20	=20	=20	=20	=20	=20	=20	=20	=20	=20	=20	=20
!	!	!	!	!	!	!	!	!	!	!	!LO:TX:i:b:t=Vertatur cito	!	!	!	!	!	!	!	!
4G\	4dd\	.	8bb\	.	2.r	.	.	2.r	.	.	2.r	.	.	4r	.	4r	.	4r	.
.	.	.	4dd#X\	.	.	.	.	.	.	.	.	.	.	.	.	.	.	.	.
4G\	4b/	.	.	.	.	.	.	.	.	.	.	.	.	4r	.	4r	.	4r	.
.	.	.	8ee\	.	.	.	.	.	.	.	.	.	.	.	.	.	.	.	.
!	!	!	!	!	!	!	!	!	!	!	!	!	!	!	!	!	!	!LO:TX:i:b:t=Vertatur cito.	!
.	8qqf#/	.	8qqddn/	.	.	.	.	.	.	.	.	.	.	.	.	.	.	.	.
4A\	4e/	.	4cc#X\	.	.	.	.	.	.	.	.	.	.	8a\L	.	8a\L	.	4gg\	.
.	.	.	.	.	.	.	.	.	.	.	.	.	.	8a\J	.	8a\J	.	.	.
!	!	!	!	!	!	!	!	!LO:LB:g=original	!	!	!LO:PB:g=original	!	!	!	!	!	!	!LO:PB:g=original	!
=21	=21	=21	=21	=21	=21	=21	=21	=21	=21	=21	=21	=21	=21	=21	=21	=21	=21	=21	=21
!LO:TX:i:a:t=Tutti	!	!	!LO:TX:t=P:problem=mixed beam	!	!	!	!	!	!	!	!	!	!	!	!	!	!	!LO:TX:t=P:problem=mixed beam	!
8D\L	8f#/L	.	8dd\L	.	8D\L	Ma-	Jesu	8F#/L	Ma-	Jesu	2dd\	Ma-	Jesu	4d/	.	4a\	.	8ff#\L	.
8E\	8g/	.	8d/	.	8E\	.	.	8G/	.	.	.	.	.	.	.	.	.	8d/	.
8F#\	8a/	.	8d/	.	8F#\	.	.	8A/	.	.	.	.	.	4d/	.	4a\	.	8d/	.
8E\	8g/	.	8d/	.	8E\J	.	.	8G/J	.	.	.	.	.	.	.	.	.	8d/	.
8F#\	8a/	.	8d/	.	8F#\L	-ter	for-	8A\L	-ter	for-	4dd\	-ter	for-	4d/	.	4a\	.	8d/	.
8G\J	8b/J	.	8dd\J	.	8G\J	.	.	8B\J	.	.	.	.	.	.	.	.	.	8dd\J	.
=22	=22	=22	=22	=22	=22	=22	=22	=22	=22	=22	=22	=22	=22	=22	=22	=22	=22	=22	=22
4A\	(4f#/	.	(4dd\	.	4A\	Chri-	-tiſ-	4F#/	Chri-	-tiſ-	4dd\	Chri-	-tiſ-	4a\	.	4a\	.	4ddT\	.
4AA/	8e/L)	.	8cc#X\L)	.	4AA/	-sti	-sime	4E/	-sti	-sime	4cc#X\	-sti	-ssime	4a\	.	4a\	.	8cc#X\L	.
.	8e/	.	8a\	.	.	.	.	.	.	.	.	.	.	.	.	.	.	8a\	.
4r	8a/	.	8cc#\	.	4r	.	.	4r	.	.	4r	.	.	4r	.	4r	.	8cc#\	.
!	!LO:SIC:v:s=8cc#/J	!	!	!	!	!	!	!	!	!	!	!	!	!	!	!	!	!	!
.	8cc/J	.	8ee\J	.	.	.	.	.	.	.	.	.	.	.	.	.	.	8ee\J	.
!LO:LB:g=original	!	!	!	!	!	!	!	!	!	!	!	!	!	!	!	!	!	!	!
=23	=23	=23	=23	=23	=23	=23	=23	=23	=23	=23	=23	=23	=23	=23	=23	=23	=23	=23	=23
!	!LO:TX:t=P:problem=mixed beam	!	!LO:TX:t=P:problem=mixed beam	!	!	!	!	!	!	!	!	!	!	!	!	!	!	!LO:TX:t=P:problem=mixed beam	!
8A\L	8ee\L	.	8gg\L	.	8A\L	Ma-	Je-	4G/	Ma-	Je-	4ee\	Ma-	Je-	4a\	.	4a\	.	8gg\L	.
8B\	8e/	.	8g/	.	8B\J	.	.	.	.	.	.	.	.	.	.	.	.	8g/	.
8c#X\	8e/	.	8g/	.	8c#X\	-ter	-su	8G/	-ter	-su	8ee\	-ter	-su	4a\	.	4a\	.	8g/	.
8A\	8e/	.	8g/	.	8A\	di-	per-	8G/	di-	per-	8ee\	di-	per-	.	.	.	.	8g/	.
8B\	8e/	.	8g/	.	8B\	-vi-	-fec-	8G/	-vi-	-fec-	8ee\	-vi-	-fe-	4a\	.	4a\	.	8g/	.
8c#\J	8e/J	.	8g/J	.	8c#\	-nae	-tiſ-	8G/	-nae	-tiſ-	8ee\	-nae	-ctiſ-	.	.	.	.	8g/J	.
=24	=24	=24	=24	=24	=24	=24	=24	=24	=24	=24	=24	=24	=24	=24	=24	=24	=24	=24	=24
4d\	(4e/	.	4g/	.	8.d\	gra-	-si-	8.G/	gra-	-si-	8.ee\	gra-	-ſsi-	4d/	.	4a\	.	(4g/	.
.	.	.	.	.	16d\	-ti-	.	16G/	-ti-	.	16ee\	-ti-	.	.	.	.	.	.	.
4D\	16d/LL)	.	16f#/LL	.	4D\	-ae	-me	4F#/	-ae	-me	4dd\	-ae.	-me	4d/	.	4a\	.	16f#/LL)	.
.	16d/	.	16d/	.	.	.	.	.	.	.	.	.	.	.	.	.	.	16d/	.
.	16f#/	.	16f#/	.	.	.	.	.	.	.	.	.	.	.	.	.	.	16f#/	.
.	16a/JJ	.	16a/JJ	.	.	.	.	.	.	.	.	.	.	.	.	.	.	16a/JJ	.
8d\L	4dd\	.	4dd\	.	4r	.	.	4r	.	.	4r	.	.	4r	.	4r	.	4dd\	.
!LO:TX:t=P:problem=# above	!	!	!	!	!	!	!	!	!	!	!	!	!	!	!	!	!	!	!
8c#X\J	.	.	.	.	.	.	.	.	.	.	.	.	.	.	.	.	.	.	.
=25	=25	=25	=25	=25	=25	=25	=25	=25	=25	=25	=25	=25	=25	=25	=25	=25	=25	=25	=25
4B\	8dd#X\	.	8ff#\	.	4B\	Ma-	mi-	4d#X\	Ma-	mi-	4ff#\	Ma-	mi-	4B/	.	4B/	.	8ff#\	.
.	4dd#\	.	4ff#\	.	.	.	.	.	.	.	.	.	.	.	.	.	.	4ff#\	.
4B\	.	.	.	.	4B\	-ter	.	4d#\	-ter	.	4ff#\	-ter	.	8B/L	.	8B/L	.	.	.
.	4dd#\	.	4ff#\	.	.	.	.	.	.	.	.	.	.	8B/	.	8B/	.	4ff#\	.
4B\	.	.	.	.	4B\	pu-	-se-	4d#\	pu-	-se-	4ff#\	pu-	-se-	8B/	.	8B/	.	.	.
.	[8dd#\	.	[8ff#\	.	.	.	.	.	.	.	.	.	.	8B/J	.	8B/J	.	[8ff#\	.
=26	=26	=26	=26	=26	=26	=26	=26	=26	=26	=26	=26	=26	=26	=26	=26	=26	=26	=26	=26
!	!	!	!	!	!	!	!	!LO:SIC:v:s=8d#\	!	!	!	!	!	!	!	!	!	!	!
4A\	8dd#\]	.	8ff#\]	.	8A\	-riſ-	-re-	8d\	-riſ-	-re-	8ff#\	-riſ-	-re-	4B/	.	4B/	.	8ff#\]	.
!	!LO:SIC:v:s=4dd#\	!	!	!	!	!	!	!LO:SIC:v:s=8d#\	!	!	!	!	!	!	!	!	!	!	!
.	4ddny\	.	4ff#\	.	8A\	-si-	.	8d\	-si-	.	8ff#\	-si-	.	.	.	.	.	4ff#\	.
!	!	!	!	!	!	!	!	!LO:SIC:v:s=4d#\	!	!	!	!	!	!	!	!	!	!	!
4A\	.	.	.	.	4A\	-ma	.	4d\	-ma	.	4ff#\	-ma	.	8B/L	.	8B/L	.	.	.
!	!LO:SIC:v:s=4dd#\	!	!	!	!	!	!	!	!	!	!	!	!	!	!	!	!	!	!
.	4dd\	.	4ff#\	.	.	.	.	.	.	.	.	.	.	8B/	.	8B/	.	4ff#\	.
!	!	!	!	!	!LO:TX:t=P:problem=nuta słabo widoczna, brak kreski taktowej	!	!	!LO:SIC:v:s=4d#	!	!	!	!	!	!	!	!	!	!	!
4A\	.	.	.	.	4A\	o-	-re	4d\	O-	-re	4ff#\	o-	-re	8B/	.	8B/	.	.	.
!	!LO:SIC:v:s=8dd#\	!	!	!	!	!	!	!	!	!	!	!	!	!	!	!	!	!	!
.	8dd\	.	8ff#\	.	.	.	.	.	.	.	.	.	.	8B/J	.	8B/J	.	8ff#\	.
!	!	!	!LO:PB:g=original	!	!LO:LB:g=original	!	!	!LO:LB:g=original	!	!	!	!	!	!LO:LB:g=original	!	!	!	!	!
=27	=27	=27	=27	=27	=27-	=27	=27	=27	=27	=27	=27	=27	=27	=27	=27	=27	=27	=27	=27
!LO:TX:t=P:problem=mixed beam	!	!	!	!	!	!	!	!	!	!	!	!	!	!	!	!	!	!	!
8E\L	8b/L	.	8gg\L	.	8E\L	-ra	no-	8B\L	-ra	no-	(8gg\L	-ra	no-	4B/	.	4B/	.	8gg\L	.
8F#\	8a/	.	8ff#\	.	8F#\J	.	.	8A\J	.	.	8ff#\J)	.	.	.	.	.	.	8ff#\	.
8G\	8g/	.	8ee\	.	8G\L	pro	.	8G\L	pro	.	(8ee\L	pro	.	4r	.	4r	.	8ee\	.
8A\	8cc/J	.	8ff#\J	.	8A\J	.	.	8c\J	.	.	8ff#\J)	.	.	.	.	.	.	8ff#\J	.
!	!	!	!	!	!LO:TX:t=P:problem=mixed beam	!	!	!	!	!	!	!	!	!	!	!	!	!	!
.	8qqg/	.	8qqee/	.	.	.	.	8qqG/	.	.	8qqee/	.	.	.	.	.	.	8qqee/	.
8B\	4f#/	.	4dd#X\	.	8B\L	no-	.	4F#/	no-	.	4dd#X\	no-	.	8B/L	.	8B/L	.	4dd#X\	.
8BB/J	.	.	.	.	8BB/J	.	.	.	.	.	.	.	.	8B/J	.	8B/J	.	.	.
!	!	!	!	!	!	!	!	!	!	!	!	!	!	!	!	!LO:LB:g=original	!	!	!
=28	=28	=28	=28	=28	=28	=28	=28	=28	=28	=28	=28	=28	=28	=28	=28	=28	=28	=28	=28
!	!	!	!LO:TX:t=P:problem=mixed beam	!	!	!	!	!	!	!	!LO:SIC:v:s=8qdd#	!	!	!	!	!	!	!LO:TX:t=P:problem=mixed beam	!
.	.	.	.	.	.	.	.	.	.	.	8qqdd/	.	.	.	.	.	.	.	.
4E\	8g/L	.	8ee\L	.	4E\	-bis	-bis	4G/	-biſ	-biſ	4ee\	-bis	-bis	4B/	.	4B/	.	8ee\L	.
.	8e/	.	8e/	.	.	.	.	.	.	.	.	.	.	.	.	.	.	8e/	.
4r	8g/	.	8g/	.	4r	.	.	4r	.	.	4r	.	.	4r	.	4r	.	8g/	.
.	8b/	.	8b/	.	.	.	.	.	.	.	.	.	.	.	.	.	.	8b/	.
4r	8ee/	.	8ee/	.	4r	.	.	4r	.	.	4r	.	.	4r	.	4r	.	8ee/	.
.	8e/J	.	8e/J	.	.	.	.	.	.	.	.	.	.	.	.	.	.	8e/J	.
=29	=29	=29	=29	=29	=29	=29	=29	=29	=29	=29	=29	=29	=29	=29	=29	=29	=29	=29	=29
4A\	8cc#X\	.	8ee\	.	4A\	Ma-	mi-	4c#X\	Ma-	mi-	4ee\	Ma-	mi-	4a\	.	4a\	.	8ee\	.
.	4cc#\	.	4ee\	.	.	.	.	.	.	.	.	.	.	.	.	.	.	4ee\	.
4A\	.	.	.	.	4A\	-ter	.	4c#\	-ter	.	4ee\	-ter	.	8a\L	.	8a\L	.	.	.
.	4cc#\	.	4ee\	.	.	.	.	.	.	.	.	.	.	8a\	.	8a\	.	4ee\	.
4A\	.	.	.	.	4A\	caſ-	-se-	4c#\	Caſ-	-se-	4ee\	caſ-	-se-	8a\	.	8a\	.	.	.
.	[8cc#\	.	[8ee\	.	.	.	.	.	.	.	.	.	.	8a\J	.	8a\J	.	[8ee\	.
!	!	!	!	!	!	!	!	!	!	!	!LO:LB:g=original	!	!	!	!	!	!	!	!
=30	=30	=30	=30	=30	=30	=30	=30	=30	=30	=30	=30	=30	=30	=30	=30	=30	=30	=30	=30
!	!	!	!	!	!	!	!	!LO:SIC:v:s=8c#\	!	!	!	!	!	!	!	!	!	!	!
4G\	8cc#\]	.	8ee\]	.	8G\	-tiſ-	-re-	8c\	-tiſ-	.	8ee\	-tiſ-	-re-	4a\	.	4a\	.	8ee\]	.
!	!LO:SIC:v:s=4cc#\	!	!	!	!	!	!	!LO:SIC:v:s=8c#\	!	!	!	!	!	!	!	!	!	!	!
.	4ccny\	.	4ee\	.	8G\	-si-	.	8c\	-si-	-re-	8ee\	-si-	.	.	.	.	.	4ee\	.
!	!	!	!	!	!	!	!	!LO:SIC:v:s=4c#\	!	!	!	!	!	!	!	!	!	!	!
4G\	.	.	.	.	4G\	-ma	.	4c\	-ma	.	4ee\	-ma	.	8a\L	.	8a\L	.	.	.
!	!LO:SIC:v:s=4cc#\	!	!	!	!	!	!	!	!	!	!	!	!	!	!	!	!	!	!
.	4cc\	.	4ee\	.	.	.	.	.	.	.	.	.	.	8a\	.	8a\	.	4ee\	.
!	!	!	!	!	!	!	!	!LO:SIC:v:s=4c#\	!	!	!	!	!	!	!	!	!	!	!
4G\	.	.	.	.	4G\	O-	-re	4c\	O-	-re	4ee\	o-	-re	8a\	.	8a\	.	.	.
!	!LO:SIC:v:s=8cc#\	!	!	!	!	!	!	!	!	!	!	!	!	!	!	!	!	!	!
.	8cc\	.	8ee\	.	.	.	.	.	.	.	.	.	.	8a\J	.	8a\J	.	8ee\	.
!	!LO:LB:g=original	!	!	!	!	!	!	!	!	!	!	!	!	!	!	!	!	!	!
=31	=31	=31	=31	=31	=31	=31	=31	=31	=31	=31	=31	=31	=31	=31	=31	=31	=31	=31	=31
!LO:TX:t=P:problem=mixed beam	!	!	!	!	!	!	!	!	!	!	!	!	!	!	!	!	!	!	!
8D\L	8a/L	.	8ff#\L	.	8D\L	-ra	no-	8A/L	-ra	no-	(8ff#\L	-ra	no-	4d/	.	4a\	.	8ff#\L	.
8E\	8g/	.	8ee\	.	8E\J	.	.	8G/J	.	.	8ee\J)	.	.	.	.	.	.	8ee\	.
8F#\	8f#/	.	8ddn\	.	8F#\L	pro	.	8F#/L	pro	.	(8ddn\L	pro	.	4r	.	4r	.	8ddn\	.
8G\	8b/J	.	8ee\J	.	8G\J	.	.	8B/J	.	.	8ee\J)	.	.	.	.	.	.	8ee\J	.
!	!	!	!	!	!LO:TX:t=P:problem=mixed beam	!	!	!	!	!	!	!	!	!	!	!	!	!	!
.	8qqf#/	.	8qqdd/	.	.	.	.	8qqF#/	.	.	.	.	.	.	.	.	.	8qqdd/	.
8A\	4e/	.	4cc#X\	.	8A\L	no-	.	4E/	no-	.	4cc#X\	no-	.	8a\L	.	8a\L	.	4cc#X\	.
8AA/J	.	.	.	.	8AA/J	.	.	.	.	.	.	.	.	8a\J	.	8a\J	.	.	.
!	!	!	!	!	!	!	!	!	!	!	!	!	!	!	!	!	!	!LO:LB:g=original	!
=32	=32	=32	=32	=32	=32	=32	=32	=32	=32	=32	=32	=32	=32	=32	=32	=32	=32	=32	=32
!	!	!	!LO:TX:t=P:problem=mixed beam	!	!	!	!	!	!	!	!	!	!	!	!	!	!	!LO:TX:t=P:problem=mixed beam	!
4D\	8f#/L	.	8dd\L	.	4D\	-biſ	-bis	4F#/	-biſ	-biſ	4dd\	-bis	-bis	4d/	.	4a\	.	8dd\L	.
.	8d/	.	8d/	.	.	.	.	.	.	.	.	.	.	.	.	.	.	8d/	.
4r	8f#/	.	8f#/	.	4r	.	.	4r	.	.	4r	.	.	4r	.	4r	.	8f#/	.
.	8a/	.	8a/	.	.	.	.	.	.	.	.	.	.	.	.	.	.	8a/	.
4r	8dd/	.	8dd\	.	4r	.	.	4r	.	.	4r	.	.	4r	.	4r	.	8dd/	.
.	8d/J	.	8d/J	.	.	.	.	.	.	.	.	.	.	.	.	.	.	8d/J	.
!	!	!	!	!	!	!	!	!LO:PB:g=original	!	!	!	!	!	!	!	!	!	!	!
=33	=33	=33	=33	=33	=33	=33	=33	=33	=33	=33	=33	=33	=33	=33	=33	=33	=33	=33	=33
4D\	8ccn\	.	8aa\	.	4d\	O-	mi-	4A/	O-	mi-	4ccn\	o-	mi-	4d/	.	4a\	.	8aa\	.
.	4a/	.	4ccn\	.	.	.	.	.	.	.	.	.	.	.	.	.	.	4ccn\	.
4D\	.	.	.	.	4D\	-ra	-se-	4A/	-ra	-se-	4cc\	-ra	-se-	4d/	.	4a\	.	.	.
.	4a/	.	4cc\	.	.	.	.	.	.	.	.	.	.	.	.	.	.	4cc\	.
8F#\L	.	.	.	.	8F#\L	pro	-re-	8A/L	pro	-re-	8cc\L	pro	-re-	8a\L	.	8cc\L	.	.	.
8G\J	8g/	.	8b\	.	8G\J	.	-re	8G/J	.	-re	8b\J	.	-re	8g\J	.	8b\J	.	8b\	.
=34	=34	=34	=34	=34	=34	=34	=34	=34	=34	=34	=34	=34	=34	=34	=34	=34	=34	=34	=34
8d\L	4gT/	.	4bt\	.	4d\	no-	no-	4G/	no-	no-	4bt\	no-	no-	4g\	.	4b\	.	4bt\	.
8D\	.	.	.	.	.	.	.	.	.	.	.	.	.	.	.	.	.	.	.
8d\	4f#/	.	4a\	.	4D\	-biſ	-bis	4F#/	-biſ	-biſ	4a\	-bis	-bis	4d/	.	4a\	.	4a\	.
8cn\	.	.	.	.	.	.	.	.	.	.	.	.	.	.	.	.	.	.	.
8B\	4r	.	4r	.	4r	.	.	4r	.	.	4r	.	.	4r	.	4r	.	4r	.
8A\J	.	.	.	.	.	.	.	.	.	.	.	.	.	.	.	.	.	.	.
!LO:LB:g=original	!	!	!	!	!	!	!	!	!	!	!	!	!	!	!	!	!	!	!
=35	=35	=35	=35	=35	=35	=35	=35	=35	=35	=35	=35	=35	=35	=35	=35	=35	=35	=35	=35
!	!	!	!LO:TX:t=P:problem=mixed beam	!	!	!	!	!	!	!	!	!	!	!	!	!	!	!LO:TX:t=P:problem=mixed beam	!
8G\L	8b\L	.	8gg\L	.	8G\L	Ma-	Je-	8B\L	Ma-	Je-	4gg\	Ma-	Je-	4g\	.	4b\	.	8gg\L	.
8A\	8cc\	.	8g/	.	8A\J	.	.	8c\J	.	.	.	.	.	.	.	.	.	8g/	.
8B\	8dd\	.	8g/	.	8B\	-ter	-su	8d\	-ter	-su	8gg\	-ter	-su	4g\	.	4b\	.	8g/	.
8A\	8cc\	.	8g/	.	8A\	in-	glo-	8c\	in-	glo-	8gg\	in-	glo-	.	.	.	.	8g/	.
8B\	8dd\	.	8g/	.	8B\	-vi-	-rio-	8d\	-Vi-	-rio-	8gg\	-vi-	-rio-	4g\	.	4b\	.	8g/	.
!	!	!	!	!	!LO:TX:t=P:problem=brak kreski taktowej	!	!	!	!	!	!	!	!	!	!	!	!	!	!
8c\J	8ee\J	.	[8gg\J	.	8c\	-o-	-ſiſ-	8e\	-o-	-ſiſ-	8gg\	-o-	-sis-	.	.	.	.	8gg\J	.
!	!	!	!	!	!LO:LB:g=original	!	!	!	!	!	!	!	!	!	!	!	!	!	!
=36	=36	=36	=36	=36	=36-	=36	=36	=36	=36	=36	=36	=36	=36	=36	=36	=36	=36	=36	=36
4d\	(4b\	.	4gg\]	.	4d\	-la-	-si-	4B\	-la-	-si-	4gg\	-la-	-[s]i-	4g\	.	4b\	.	(4gg\	.
4D\	8a\L)	.	8ff#\L	.	4D\	-ta	-me	4A\	-ta	-me	4ff#\	-ta	-me	4d/	.	4a\	.	8ff#\L)	.
.	8a\	.	8dd\	.	.	.	.	.	.	.	.	.	.	.	.	.	.	8dd\	.
4r	8dd\	.	8ff#\	.	4r	.	.	4r	.	.	4r	.	.	4r	.	4r	.	8ff#\	.
.	8ff#\J	.	8aa\J	.	.	.	.	.	.	.	.	.	.	.	.	.	.	8aa\J	.
=37	=37	=37	=37	=37	=37	=37	=37	=37	=37	=37	=37	=37	=37	=37	=37	=37	=37	=37	=37
!	!LO:TX:t=P:problem=mixed beam	!	!	!	!	!	!	!	!	!	!	!	!	!	!	!	!	!	!
8D\L	8aa\L	.	8ccc\L	.	8D\L	Ma-	mi-	4A\	Ma-	mi-	4cc\	Ma-	mi-	4d/	.	4a\	.	8ccc\L	.
8E\	8a/	.	8cc\	.	8E\J	.	.	.	.	.	.	.	.	.	.	.	.	8cc\	.
8F#\	8a/	.	8cc\	.	8F#\	-ter	-se-	8A\	-ter	.	8cc\	-ter	.	4d/	.	4a\	.	8cc\	.
8D\	8a/	.	8cc\	.	8D\	in-	-re-	8A\	in-	-se-	8cc\	in-	-se-	.	.	.	.	8cc\	.
8E\	8a/	.	8cc\	.	8E\	-te-	.	8A\	-te-	-re-	8cc\	-te-	-re-	4d/	.	4a\	.	8cc\	.
8F#\J	8a/J	.	8cc\J	.	8F#\	-me-	-re	8A\	-me-	-re	8cc\	-me-	-re	.	.	.	.	8cc\J	.
=38	=38	=38	=38	=38	=38	=38	=38	=38	=38	=38	=38	=38	=38	=38	=38	=38	=38	=38	=38
!LO:TX:t=P:problem=mixed beam	!	!	!	!	!	!	!	!	!	!	!	!	!	!	!	!	!	!	!
8G\L	(4a/	.	(4cc\	.	4G\	-ra-	no-	4A\	-ra-	no-	4cc\	-ra-	no-	4a\	.	4cc\	.	(4cc\	.
8GG/	.	.	.	.	.	.	.	.	.	.	.	.	.	.	.	.	.	.	.
!	!LO:TX:t=P:problem=mixed beam	!	!	!	!	!	!	!	!	!	!	!	!	!	!	!	!	!	!
8GG/	8g/L)	.	8b\L)	.	8GG/	-ta	.	8G\	-ta	.	8b\	-ta.	-bis.	8g\L	.	8b\L	.	8b\L)	.
!	!	!	!	!	!	!	!	!	!	!	!LO:LB:g=original	!	!	!	!	!	!	!	!
8G\	8dd\	.	8ffn\J	.	8G\	o-	-bis	8d\	O-	-biſ	8ffn\	o-	mi-	8g\	.	8g\	.	8ffn\	.
!	!	!	!	!	!	!	!	!LO:LB:g=original	!	!	!	!	!	!	!	!	!	!	!
8A\	8dd\	.	4ff\	.	8A\	-ra	mi-	8d\	-ra	mi-	8ff\	-ra	.	8g\	.	8g\	.	8ff\	.
8B\J	8dd\J	.	.	.	8B\	pro	-se-	8d\	pro	-se-	8ff\	pro	-se-	8g\J	.	8g\J	.	8ff\J	.
!	!	!	!LO:LB:g=original	!	!	!	!	!	!	!	!	!	!	!	!	!	!	!	!
=39	=39	=39	=39	=39	=39	=39	=39	=39	=39	=39	=39	=39	=39	=39	=39	=39	=39	=39	=39
!LO:TX:t=P:problem=mixed beam	!	!	!	!	!	!	!	!	!	!	!LO:SIC:v:s=4ffn\	!	!	!	!	!	!	!LO:SIC:v:s=(4ff\	!
8c\L	4.g/	.	(4ffn\	.	4c\	no-	-re-	4d\	no-	.	4ff#\	no-	-re-	4g\	.	4g\	.	(4ff#\	.
8C/	.	.	.	.	.	.	.	.	.	.	.	.	.	.	.	.	.	.	.
8C/	.	.	8ee\L)	.	8C/	-biſ	-re	8c\	-biſ	-re-	8ee\	-biſ	-re	8r	.	8r	.	8ee\L)	.
8A\	8ee\L	.	8gg\	.	8A\	o-	.	8e\	o-	-re	8gg\	o-	.	8a\L	.	8a\L	.	8gg\	.
8B\	8ee\	.	8gg\	.	8B\	-ra	mi-	8e\	-ra	.	8gg\	-ra	mi-	8a\	.	8a\	.	8gg\	.
8c#X\J	8ee\J	.	8gg\J	.	8c#X\	pro	-se-	8e\	pro	mi-	8gg\	pro	-se-	8a\J	.	8a\J	.	8gg\J	.
!	!	!	!	!	!	!	!	!	!	!	!	!	!	!LO:LB:g=original	!	!	!	!	!
=40	=40	=40	=40	=40	=40	=40	=40	=40	=40	=40	=40	=40	=40	=40	=40	=40	=40	=40	=40
8d\L	4.a/	.	(4gg\	.	4d\	no-	-re-	4e\	no-	-se-	4gg\	no-	-re-	4a\	.	4a\	.	(4gg\	.
8D\	.	.	.	.	.	.	.	.	.	.	.	.	.	.	.	.	.	.	.
8D\	.	.	8ff#X\L)	.	8D\	-biſ	-re	8d\	-biſ	-re-	8ff#X\	-biſ	-re	8r	.	8r	.	8ff#X\L)	.
8B\	8ff#\L	.	8aa\	.	8B\	o-	.	8f#\	o-	-re	8aa\	o-	.	8b\L	.	8b\L	.	8aa\	.
8c#X\	8ff#\	.	8aa\	.	8c#X\	-ra	mi-	8f#\	-ra	.	8aa\	-ra	mi-	8b\	.	8b\	.	8aa\	.
8d#X\J	8ff#\J	.	8aa\J	.	8d#X\	pro	-se-	8f#\	pro	mi-	8aa\	pro	-se-	8b\J	.	8b\J	.	8aa\J	.
!	!	!	!	!	!	!	!	!	!	!	!	!	!	!	!	!LO:LB:g=original	!	!	!
=41	=41	=41	=41	=41	=41	=41	=41	=41	=41	=41	=41	=41	=41	=41	=41	=41	=41	=41	=41
8e\L	4.b\	.	(4aa\	.	4e\	no-	-re-	4f#\	no-	-se-	4aa\	no-	-re-	4b\	.	4b\	.	(4aa\	.
8E\	.	.	.	.	.	.	.	.	.	.	.	.	.	.	.	.	.	.	.
8E\	.	.	8gg\L)	.	8E\	-biſ	-re	8e\	-biſ	-re-	8gg\	-biſ	.	8r	.	8r	.	8gg\L)	.
8Cn\	8gg\L	.	8bb\	.	8Cn\	o-	.	8g\	o-	-re	8b\	o-	-re-	8cc\L	.	8cc\L	.	8bb\	.
8Dn\	8gg\	.	8bb\	.	8D\	-ra	mi-	8g\	-ra	.	8b\	-ra	.	8cc\	.	8cc\	.	8bb\	.
8E\J	8gg\J	.	8bb\J	.	8E\	pro	-se-	8g\	pro	mi-	8b\	pro	-re	8cc\J	.	8cc\J	.	8bb\J	.
!	!	!	!	!	!LO:LB:g=original	!	!	!	!	!	!	!	!	!	!	!	!	!	!
=42	=42	=42	=42	=42	=42	=42	=42	=42	=42	=42	=42	=42	=42	=42	=42	=42	=42	=42	=42
8F#\L	4.cc\	.	(4bb\	.	4F#\	no-	-re-	4g\	no-	-se-	4b\	no-	no-	4cc\	.	4cc\	.	(4bb\	.
8F#\	.	.	.	.	.	.	.	.	.	.	.	.	.	.	.	.	.	.	.
8F#\	.	.	8aa\L)	.	8F#\	-biſ	-re	8f#\	-biſ	-re-	8a\	-biſ	.	8r	.	8r	.	8aa\L)	.
8D\	8aa\L	.	8ccc\	.	8D\	o-	.	8A\	o-	-re	8cc\	o-	-bis	8d/L	.	8a\L	.	8ccc\	.
8E\	8aa\	.	8ccc\	.	8E\	-ra	mi-	8A\	-ra	mi-	8cc\	-ra	mi-	8d/	.	8a\	.	8ccc\	.
8F#\J	8aa\J	.	8ccc\J	.	8F#\	pro	-se-	8A\	pro.	-se-	8cc\	pro	.	8d/J	.	8a\J	.	8ccc\J	.
!	!	!	!	!	!	!	!	!LO:LB:g=original	!	!	!	!	!	!	!	!	!	!	!
=43	=43	=43	=43	=43	=43	=43	=43	=43	=43	=43	=43	=43	=43	=43	=43	=43	=43	=43	=43
!LO:TX:t=P:problem=mixed beam	!	!	!	!	!	!	!	!	!	!	!	!	!	!	!	!	!	!	!
!	!	!	!	!	!	!	!	!LO:SIC:v:l:s=-re-:verse 2	!	!	!	!	!	!	!	!	!	!	!
8G\L	(4aa\	.	(4ccc\	.	4G\	no-	-re-	4A\	no-	-rer-	4cc\	no-	-se-	4d/	.	4a\	.	4ccc\	.
8GG/J	.	.	.	.	.	.	.	.	.	.	.	.	.	.	.	.	.	.	.
!	!LO:TX:t=P:problem=mixed beam	!	!LO:TX:t=P:problem=mixed beam	!	!	!	!	!	!	!	!	!	!	!	!	!	!	!LO:TX:t=P:problem=mixed beam	!
!	!	!	!	!	!	!	!	!LO:SIC:v:l:s=-re:verse 2	!	!	!	!	!	!	!	!	!	!	!
4GG/	8gg\L)	.	8bb\L)	.	8GG/	-biſ	-re-	8G\	-biſ	-ere	8b\	-biſ	-re-	4g\	.	4b\	.	8bb\L	.
.	8dd\	.	8dd/	.	8GG/	o-	.	8G\	o-	mi-	8dd\	o-	.	.	.	.	.	8dd\	.
!	!	!	!LO:TX:t=P:problem=mixed beam	!	!	!	!	!	!	!	!	!	!	!	!	!	!	!	!
4C/	8ee\	.	8ee/	.	8C/	-ra	.	8G\	-ra	-se-	8ee\	-ra	-re	4g\	.	4b\	.	8ee\	.
.	8g/J	.	8g/J	.	8C/	pro	-re	8A\	pro	-rere	8cc\	pro	.	.	.	.	.	8g/J	.
!	!LO:LB:g=original	!	!	!	!	!	!	!	!	!	!	!	!	!	!	!	!	!LO:LB:g=original	!
=44	=44	=44	=44	=44	=44	=44	=44	=44	=44	=44	=44	=44	=44	=44	=44	=44	=44	=44	=44
.	.	.	.	.	.	.	.	8qqG/	.	.	8qqb/	.	.	.	.	.	.	.	.
4D/	8f#/L	.	8f#/L	.	4D/	no-	no-	4F#/	no-	no-	4a\	no-	no-	4d/	.	4a\	.	8f#/L	.
.	8e/J	.	8e/J	.	.	.	.	.	.	.	.	.	.	.	.	.	.	8e/J	.
8D/L	4d/	.	4d/	.	4D/	-biſ	-bis	4F#/	-biſ	-biſ	4a\	-bis	-bis	4d/	.	4a\	.	4d/	.
8C/	.	.	.	.	.	.	.	.	.	.	.	.	.	.	.	.	.	.	.
8BB-X/	4r	.	4r	.	4r	.	.	4r	.	.	4r	.	.	4r	.	4r	.	4r	.
8AA/J	.	.	.	.	.	.	.	.	.	.	.	.	.	.	.	.	.	.	.
!LO:LB:g=original	!	!	!	!	!	!	!	!	!	!	!LO:LB:g=original	!	!	!	!	!	!	!	!
=45	=45	=45	=45	=45	=45	=45	=45	=45	=45	=45	=45	=45	=45	=45	=45	=45	=45	=45	=45
!LO:TX:i:a:t=Solo.	!	!LO:DY:a	!	!LO:DY:a:t=pia.	!	!	!	!	!	!	!	!	!	!	!LO:DY:a:t=pia	!	!LO:DY:a:t=pia.	!	!LO:DY:a
4GG/	8b-X\L	p	(8gg'\L	p	4G\	O-	mi-	4G/	O-	mi-	4b-X\	o-	Je-	[2.g\	p	[2.g\	p	8gg\L	p
.	8b-\	.	8gg'\	.	.	.	.	.	.	.	.	.	.	.	.	.	.	8gg\	.
4G\	8b-\	.	8gg'\	.	4G\	-ra	.	4G/	-ra	.	4b-\	-ra	-su	.	.	.	.	8gg\	.
.	8b-\	.	8gg'\	.	.	.	.	.	.	.	.	.	.	.	.	.	.	8gg\	.
4Fn\	8b-\	.	8gg'\	.	4Fn\	pro	-se-	4G/	pro	-se-	4b-\	pro	mi-	.	.	.	.	8gg\	.
.	8b-\J	.	8gg'\J)	.	.	.	.	.	.	.	.	.	.	.	.	.	.	8gg\J	.
=46	=46	=46	=46	=46	=46	=46	=46	=46	=46	=46	=46	=46	=46	=46	=46	=46	=46	=46	=46
!	!LO:SIC:v:s=8b-\L	!	!	!	!	!	!	!	!	!	!LO:SIC:v:s=2.b-\	!	!	!	!	!	!	!	!
!	!	!	!	!	!	!	!	!LO:SIC:v:l:s=-re-:verse 2	!	!	!	!	!	!	!	!	!	!	!
4E-X\	8b\L	.	(8gg'\L	.	2E-X\	no-	-re	2.G/	no-	-rer-	2.b\	no-	-ri-	2.g\_	.	2.g\_	.	8gg\L	.
!	!LO:SIC:v:s=8b-\	!	!	!	!	!	!	!	!	!	!	!	!	!	!	!	!	!	!
.	8b\	.	8gg'\	.	.	.	.	.	.	.	.	.	.	.	.	.	.	8gg\	.
!	!LO:SIC:v:s=8b-\	!	!	!	!	!	!	!	!	!	!	!	!	!	!	!	!	!	!
4E-\	8b\	.	8gg'\	.	.	.	.	.	.	.	.	.	.	.	.	.	.	8gg\	.
!	!LO:SIC:v:s=8b-\	!	!	!	!	!	!	!	!	!	!	!	!	!	!	!	!	!	!
.	8b\	.	8gg'\	.	.	.	.	.	.	.	.	.	.	.	.	.	.	8gg\	.
!	!LO:SIC:v:s=8b-\	!	!	!	!	!	!	!	!	!	!	!	!	!	!	!	!	!	!
4D\	8b\	.	8gg'\	.	4D/	.	.	.	.	.	.	.	.	.	.	.	.	8gg\	.
!	!LO:SIC:v:s=8b-J\	!	!	!	!	!	!	!	!	!	!	!	!	!	!	!	!	!	!
.	8b\J	.	8gg'\J)	.	.	.	.	.	.	.	.	.	.	.	.	.	.	8gg\J	.
=47	=47	=47	=47	=47	=47	=47	=47	=47	=47	=47	=47	=47	=47	=47	=47	=47	=47	=47	=47
!	!LO:SIC:v:s=8b-\L	!	!	!	!	!	!	!	!	!	!LO:SIC:v:s=2.b-\	!	!	!	!	!	!	!	!
!	!	!	!	!	!	!	!	!LO:SIC:v:l:s=-re no:verse 2	!	!	!	!	!	!	!	!	!	!	!
4C#X/	8b\L	.	(8gg'\L	.	2.C#X/	.	no-	2.G/	.	-e no-	2.b\	-[[bis]]-	-ſi-	(2.g\]	.	2.g\]	.	8gg\L	.
!	!LO:SIC:v:s=8b-\	!	!	!	!	!	!	!	!	!	!	!	!	!	!	!	!	!	!
.	8b\	.	8gg'\	.	.	.	.	.	.	.	.	.	.	.	.	.	.	8gg\	.
!	!LO:SIC:v:s=8b-\	!	!	!	!	!	!	!	!	!	!	!	!	!	!	!	!	!	!
4C#/	8b\	.	8gg'\	.	.	.	.	.	.	.	.	.	.	.	.	.	.	8gg\	.
!	!LO:SIC:v:s=8b-\	!	!	!	!	!	!	!	!	!	!	!	!	!	!	!	!	!	!
.	8b\	.	8gg'\	.	.	.	.	.	.	.	.	.	.	.	.	.	.	8gg\	.
!	!LO:SIC:v:s=8b-\	!	!	!	!	!	!	!	!	!	!	!	!	!	!	!	!	!	!
4C#/	8b\	.	8gg'\	.	.	.	.	.	.	.	.	.	.	.	.	.	.	8gg\	.
!	!LO:SIC:v:s=8b-J\	!	!	!	!	!	!	!	!	!	!	!	!	!	!	!	!	!	!
.	8b\J	.	8gg'\J)	.	.	.	.	.	.	.	.	.	.	.	.	.	.	8gg\J	.
=48	=48	=48	=48	=48	=48	=48	=48	=48	=48	=48	=48	=48	=48	=48	=48	=48	=48	=48	=48
2.D;/	2.a;/	.	2.ff#X;\	.	2.D;/	-bis	-bis	2.F#;/	-biſ	-biſ	2.a;\	-bis	-ci	2.d;</)	.	2.a;\	.	2.ff#X;\	.
=49	=49	=49	=49	=49	=49	=49	=49	=49	=49	=49	=49	=49	=49	=49	=49	=49	=49	=49	=49
!LO:TX:i:a:t=Tutti	!	!	!	!	!	!	!	!	!	!	!	!	!	!	!	!	!	!	!
!LO:TX:t=P:problem=mixed beam	!	!LO:DY:a	!LO:TX:t=P:problem=mixed beam	!LO:DY:a	!LO:TX:t=P:problem=mixed beam	!	!	!	!	!	!	!	!	!	!LO:DY:a	!	!LO:DY:a	!	!LO:DY:a
!	!	!LO:DY:a:t=for&colon;	!	!	!	!	!	!	!	!	!	!	!	!	!	!	!	!	!
8GG/L	16g/LL	f	16g/LL	f	8GG/L	O-	mi-	4Bn\	O-	mi-	4gg\	o-	mi-	4g\	f	4b\	f	2.gg\	f
.	16bn/	.	16gg\	.	.	.	.	.	.	.	.	.	.	.	.	.	.	.	.
8G\	16g/	.	16g/	.	8G\J	.	.	.	.	.	.	.	.	.	.	.	.	.	.
.	16b/JJ	.	16gg\JJ	.	.	.	.	.	.	.	.	.	.	.	.	.	.	.	.
!	!	!	!LO:TX:t=P:problem=mixed beam	!	!	!	!	!	!	!	!	!	!	!	!	!	!	!	!
8F#X\	16g/LL	.	16g/LL	.	8Fn\L	-ra	.	4B\	-ra	.	4gg\	-ra	.	4g\	.	4b\	.	.	.
.	16b/	.	16gg\	.	.	.	.	.	.	.	.	.	.	.	.	.	.	.	.
8En\	16g/	.	16g/	.	8E\J	.	.	.	.	.	.	.	.	.	.	.	.	.	.
.	16b/JJ	.	16gg\JJ	.	.	.	.	.	.	.	.	.	.	.	.	.	.	.	.
!	!	!	!LO:TX:t=P:problem=mixed beam	!	!	!	!	!	!	!	!	!	!	!	!	!	!	!	!
8D\	16g/LL	.	16g/LL	.	8D\L	pro	-se-	4B\	pro	-se-	4gg\	pro	-se-	4g\	.	4b\	.	.	.
.	16b/	.	16gg\	.	.	.	.	.	.	.	.	.	.	.	.	.	.	.	.
8C\J	16g/	.	16g/	.	8C\J	.	.	.	.	.	.	.	.	.	.	.	.	.	.
.	16b/JJ	.	16gg\JJ	.	.	.	.	.	.	.	.	.	.	.	.	.	.	.	.
!	!	!	!LO:LB:g=original	!	!	!	!	!	!	!	!	!	!	!	!	!	!	!	!
=50	=50	=50	=50	=50	=50	=50	=50	=50	=50	=50	=50	=50	=50	=50	=50	=50	=50	=50	=50
!	!	!	!LO:TX:t=P:problem=mixed beam	!	!	!	!	!	!	!	!	!	!	!	!	!	!	!	!
8BB/L	16g/LL	.	16g/LL	.	8BB/L	no-	-re	2.B\	no-	-re-	2.gg\	no-	-re-	2.g\	.	2.b\	.	2.gg\	.
.	16b/	.	16gg\	.	.	.	.	.	.	.	.	.	.	.	.	.	.	.	.
8E/	16g/	.	16g/	.	8E/	.	.	.	.	.	.	.	.	.	.	.	.	.	.
.	16b/JJ	.	16gg\JJ	.	.	.	.	.	.	.	.	.	.	.	.	.	.	.	.
!	!	!	!LO:TX:t=P:problem=mixed beam	!	!	!	!	!	!	!	!	!	!	!	!	!	!	!	!
8D/	16g/LL	.	16g/LL	.	8D/	.	.	.	.	.	.	.	.	.	.	.	.	.	.
.	16b/	.	16gg\	.	.	.	.	.	.	.	.	.	.	.	.	.	.	.	.
8C/	16g/	.	16g/	.	8C/	.	.	.	.	.	.	.	.	.	.	.	.	.	.
.	16b/JJ	.	16gg\JJ	.	.	.	.	.	.	.	.	.	.	.	.	.	.	.	.
!	!	!	!LO:TX:t=P:problem=mixed beam	!	!	!	!	!	!	!	!	!	!	!	!	!	!	!	!
8BB/	16g/LL	.	16g/LL	.	8BB/	.	.	.	.	.	.	.	.	.	.	.	.	.	.
.	16b/	.	16gg\	.	.	.	.	.	.	.	.	.	.	.	.	.	.	.	.
8AA/J	16g/	.	16g/	.	8AA/J	.	.	.	.	.	.	.	.	.	.	.	.	.	.
.	16b/JJ	.	16gg\JJ	.	.	.	.	.	.	.	.	.	.	.	.	.	.	.	.
!	!	!	!	!	!LO:LB:g=original	!	!	!LO:LB:g=original	!	!	!	!	!	!	!	!	!	!	!
=51	=51	=51	=51	=51	=51	=51	=51	=51	=51	=51	=51	=51	=51	=51	=51	=51	=51	=51	=51
!	!	!	!LO:TX:t=P:problem=mixed beam	!	!	!	!	!	!	!	!	!	!	!	!	!	!	!	!
8GG/L	8g/L	.	8g/L	.	8GG/L	.	no-	4B\	.	-re	4gg\	.	-re	4g\	.	4b\	.	4gg\	.
8BB/J	8b/J	.	8gg\J	.	8BB/J	.	.	.	.	.	.	.	.	.	.	.	.	.	.
4D/	4d/	.	4d/	.	2D\	.	.	2A\	.	no-	2ff#\	.	no-	4d/	.	4a\	.	4a\	.
4D/	4a/	.	4ff#t\	.	.	.	.	.	.	.	.	.	.	4d/	.	4a\	.	4ff#\	.
=52	=52	=52	=52	=52	=52	=52	=52	=52	=52	=52	=52	=52	=52	=52	=52	=52	=52	=52	=52
!	!	!	!LO:TX:t=P:problem=mixed beam	!	!	!	!	!	!	!	!	!	!	!	!	!	!	!	!
4GG/	16b/LL	.	16ff#\LL	.	4GG/	-bis	-bis	4B\	-bis.	-bis	4gg\	-bis	-bis	4g\	.	4b\	.	16gg\LL	.
.	16g/	.	16g/	.	.	.	.	.	.	.	.	.	.	.	.	.	.	16g\	.
.	16a/	.	16a/	.	.	.	.	.	.	.	.	.	.	.	.	.	.	16a\	.
.	16b/JJ	.	16b/JJ	.	.	.	.	.	.	.	.	.	.	.	.	.	.	16b\JJ	.
4r	16cc\LL	.	16cc\LL	.	4r	.	.	4r	.	.	4r	.	.	4r	.	4r	.	16cc\LL	.
.	16dd\	.	16dd\	.	.	.	.	.	.	.	.	.	.	.	.	.	.	16dd\	.
.	16ee\	.	16ee\	.	.	.	.	.	.	.	.	.	.	.	.	.	.	16ee\	.
.	16ff#\JJ	.	16ff#\JJ	.	.	.	.	.	.	.	.	.	.	.	.	.	.	16ff#\JJ	.
4r	4gg\	.	4gg\	.	4r	.	.	4r	.	.	4r	.	.	4r	.	4r	.	4gg\	.
=53	=53	=53	=53	=53	=53	=53	=53	=53	=53	=53	=53	=53	=53	=53	=53	=53	=53	=53	=53
!LO:TX:t=P:problem=mixed beam	!	!	!LO:TX:t=P:problem=mixed beam	!	!LO:TX:t=P:problem=mixed beam	!	!	!	!	!	!	!	!	!	!	!	!	!	!LO:DY:a
8GG/L	16g/LL	.	16g/LL	.	8GG/L	O-	mi-	4G/	O-	mi-	4b\	o-	mi-	4g\	.	4b\	.	2.gg\	p
.	16b/	.	16gg\	.	.	.	.	.	.	.	.	.	.	.	.	.	.	.	.
8G\	16g/	.	16g/	.	8G\J	.	.	.	.	.	.	.	.	.	.	.	.	.	.
.	16b/JJ	.	16gg\JJ	.	.	.	.	.	.	.	.	.	.	.	.	.	.	.	.
!	!	!	!LO:TX:t=P:problem=mixed beam	!	!	!	!	!	!	!	!	!	!	!	!	!	!	!	!
8F#\	16g/LL	.	16g/LL	.	8F#\L	-ra	.	4G/	-ra	.	4b\	-ra	-se-	4g\	.	4b\	.	.	.
.	16b/	.	16gg\	.	.	.	.	.	.	.	.	.	.	.	.	.	.	.	.
8E\	16g/	.	16g/	.	8E\J	.	.	.	.	.	.	.	.	.	.	.	.	.	.
.	16b/JJ	.	16gg\JJ	.	.	.	.	.	.	.	.	.	.	.	.	.	.	.	.
!	!	!	!LO:TX:t=P:problem=mixed beam	!	!	!	!	!	!	!	!	!	!	!	!	!	!	!	!
8D\	16g/LL	.	16g/LL	.	8D/L	pro	-se-	4G/	pro	-se-	4b\	pro	-re-	4g\	.	4b\	.	.	.
.	16b/	.	16gg\	.	.	.	.	.	.	.	.	.	.	.	.	.	.	.	.
8C\J	16g/	.	16g/	.	8C/J	.	.	.	.	.	.	.	.	.	.	.	.	.	.
!	!LO:TX:t=P:problem=brak kreski taktowej	!	!	!	!	!	!	!	!	!	!	!	!	!	!	!	!	!	!
.	16b/JJ	.	16gg\JJ	.	.	.	.	.	.	.	.	.	.	.	.	.	.	.	.
!	!LO:LB:g=original	!	!	!	!	!	!	!	!	!	!	!	!	!	!	!	!	!	!
=54	=54-	=54	=54	=54	=54	=54	=54	=54	=54	=54	=54	=54	=54	=54	=54	=54	=54	=54	=54
!	!	!	!LO:TX:t=P:problem=mixed beam	!	!	!	!	!	!	!	!	!	!	!	!	!	!	!	!
!	!	!	!	!	!	!	!	!LO:SIC:v:l:s=-re-:verse 2	!	!	!	!	!	!	!	!	!	!	!
8BB/L	16g/LL	.	16g/LL	.	8BB/L	no-	-re-	2.G/	no-	-rer-	2.b\	no-	-re	2.g\	.	2.b\	.	2.gg\	.
.	16b/	.	16gg\	.	.	.	.	.	.	.	.	.	.	.	.	.	.	.	.
8E/	16g/	.	16g/	.	8E/	.	.	.	.	.	.	.	.	.	.	.	.	.	.
.	16b/JJ	.	16gg\JJ	.	.	.	.	.	.	.	.	.	.	.	.	.	.	.	.
!	!	!	!LO:TX:t=P:problem=mixed beam	!	!	!	!	!	!	!	!	!	!	!	!	!	!	!	!
8D/	16g/LL	.	16g/LL	.	8D/	.	.	.	.	.	.	.	.	.	.	.	.	.	.
.	16b/	.	16gg\	.	.	.	.	.	.	.	.	.	.	.	.	.	.	.	.
8C/	16g/	.	16g/	.	8C/	.	.	.	.	.	.	.	.	.	.	.	.	.	.
.	16b/JJ	.	16gg/JJ	.	.	.	.	.	.	.	.	.	.	.	.	.	.	.	.
!	!	!	!LO:TX:t=P:problem=mixed beam	!	!	!	!	!	!	!	!	!	!	!	!	!	!	!	!
8BB/	16g/LL	.	16g/LL	.	8BB/	.	-re	.	.	.	.	.	.	.	.	.	.	.	.
.	16b/	.	16gg\	.	.	.	.	.	.	.	.	.	.	.	.	.	.	.	.
8AA/J	16g/	.	16g/	.	8AA/J	.	.	.	.	.	.	.	.	.	.	.	.	.	.
.	16b/JJ	.	16gg\JJ	.	.	.	.	.	.	.	.	.	.	.	.	.	.	.	.
=55	=55	=55	=55	=55	=55	=55	=55	=55	=55	=55	=55	=55	=55	=55	=55	=55	=55	=55	=55
!	!	!	!LO:TX:t=P:problem=mixed beam	!	!	!	!	!	!	!	!	!	!	!	!	!	!	!	!
!	!	!	!	!	!	!	!	!LO:SIC:v:l:s=-re:verse 2	!	!	!	!	!	!	!	!	!	!	!
8GG/L	8g/L	.	8g/L	.	8GG/L	.	no-	4G/	.	-e	4b\	.	no-	4g\	.	4b\	.	4gg\	.
8BB/J	8b/J	.	8gg\J	.	8BB/J	.	.	.	.	.	.	.	.	.	.	.	.	.	.
4D/	4d/	.	4d/	.	2D/	.	.	2F#/	.	no-	2a\	.	.	4d/	.	4a\	.	4a\	.
4D/	4a/	.	4ff#t\	.	.	.	.	.	.	.	.	.	.	4d/	.	4a\	.	4ff#\	.
!LO:LB:g=original	!	!	!	!	!	!	!	!	!	!	!	!	!	!	!	!	!	!	!
=56	=56	=56	=56	=56	=56	=56	=56	=56	=56	=56	=56	=56	=56	=56	=56	=56	=56	=56	=56
!LO:TX:i:a:t=Solo	!	!	!	!	!	!	!	!	!	!	!	!	!	!	!	!	!	!	!
4GG/	4b/	.	8gg\	.	4GG/	-bis	-bis	4G/	-biſ	-biſ	4b\	-biſ	-bis	4g\	.	4b\	.	4gg\	.
.	.	.	4dd\	.	.	.	.	.	.	.	.	.	.	.	.	.	.	.	.
4BB/	4g/	.	.	.	4r	.	.	4r	.	.	4r	.	.	4r	.	4r	.	4r	.
.	.	.	(8ffn\L	.	.	.	.	.	.	.	.	.	.	.	.	.	.	.	.
4BB/	4g/	.	8ee\	.	4r	.	.	4r	.	.	4r	.	.	4r	.	4r	.	4r	.
.	.	.	8dd#X\J)	.	.	.	.	.	.	.	.	.	.	.	.	.	.	.	.
!	!	!	!	!	!	!	!	!	!	!	!	!	!	!LO:LB:g=original	!	!	!	!LO:LB:g=original	!
=57	=57	=57	=57	=57	=57	=57	=57	=57	=57	=57	=57	=57	=57	=57	=57	=57	=57	=57	=57
4C/	4g/	.	8ee\	.	2.r	.	.	2.r	.	.	2.r	.	.	4r	.	4r	.	4r	.
.	.	.	8g#X/	.	.	.	.	.	.	.	.	.	.	.	.	.	.	.	.
4C/	4e/	.	8a/	.	.	.	.	.	.	.	.	.	.	4r	.	4r	.	4r	.
.	.	.	8gn/	.	.	.	.	.	.	.	.	.	.	.	.	.	.	.	.
!	!	!	!LO:TX:t=P:problem=brak kreski taktowej	!	!	!	!	!	!	!	!	!	!	!	!	!	!	!	!
.	8qqB/	.	.	.	.	.	.	.	.	.	.	.	.	.	.	.	.	.	.
4D/	4A/	.	4f#X/	.	.	.	.	.	.	.	.	.	.	4a\	.	4cc\	.	4cc\	.
!	!	!	!LO:LB:g=original	!	!	!	!	!	!	!	!	!	!	!	!	!LO:LB:g=original	!	!	!
=58	=58	=58	=58-	=58	=58	=58	=58	=58	=58	=58	=58	=58	=58	=58	=58	=58	=58	=58	=58
4GG/	4B/	.	8g/	.	2.r	.	.	2.r	.	.	2.r	.	.	4g\	.	4b\	.	4b\	.
.	.	.	4dd\	.	.	.	.	.	.	.	.	.	.	.	.	.	.	.	.
4BB/	4g/	.	.	.	.	.	.	.	.	.	.	.	.	4r	.	4r	.	4r	.
.	.	.	(8ffn\L	.	.	.	.	.	.	.	.	.	.	.	.	.	.	.	.
4BB/	4g/	.	8ee\	.	.	.	.	.	.	.	.	.	.	4r	.	4r	.	4r	.
.	.	.	8dd#X\J)	.	.	.	.	.	.	.	.	.	.	.	.	.	.	.	.
=59	=59	=59	=59	=59	=59	=59	=59	=59	=59	=59	=59	=59	=59	=59	=59	=59	=59	=59	=59
4C/	4g/	.	8ee\	.	2.r	.	.	2.r	.	.	2.r	.	.	4r	.	4r	.	4r	.
!	!	!	!LO:N:vis=4	!	!	!	!	!	!	!	!	!	!	!	!	!	!	!	!
.	.	.	8g#X/	.	.	.	.	.	.	.	.	.	.	.	.	.	.	.	.
4C/	4e/	.	8a/	.	.	.	.	.	.	.	.	.	.	4r	.	4r	.	4r	.
.	.	.	8gn/	.	.	.	.	.	.	.	.	.	.	.	.	.	.	.	.
.	8qqB/	.	.	.	.	.	.	.	.	.	.	.	.	.	.	.	.	.	.
4D/	4A/	.	4f#X/	.	.	.	.	.	.	.	.	.	.	4a\	.	4cc\	.	4cc\	.
=60	=60	=60	=60	=60	=60	=60	=60	=60	=60	=60	=60	=60	=60	=60	=60	=60	=60	=60	=60
!LO:TX:t=P:problem=mixed beam	!	!	!	!	!	!	!	!	!	!	!	!	!	!LO:TX:t=P:problem=mixed beam	!	!	!	!	!
8GG/L	8B/L	.	16g/LL	.	2.r	.	.	2.r	.	.	2.r	.	.	8g\L	.	8b\L	.	8b/L	.
.	.	.	16G/	.	.	.	.	.	.	.	.	.	.	.	.	.	.	.	.
8G\	8B/	.	16g/	.	.	.	.	.	.	.	.	.	.	16B/L	.	16g\L	.	8b/	.
.	.	.	16G/JJ	.	.	.	.	.	.	.	.	.	.	16B/JJ	.	16g\JJ	.	.	.
8D\	8B/	.	16g/LL	.	.	.	.	.	.	.	.	.	.	8B/L	.	8g\L	.	8b/	.
.	.	.	16G/	.	.	.	.	.	.	.	.	.	.	.	.	.	.	.	.
8G\	8B/	.	16g/	.	.	.	.	.	.	.	.	.	.	8B/	.	8g\	.	8b/	.
.	.	.	16G/JJ	.	.	.	.	.	.	.	.	.	.	.	.	.	.	.	.
8D\	8B/	.	16g/LL	.	.	.	.	.	.	.	.	.	.	8B/	.	8g\	.	8b/	.
.	.	.	16G/	.	.	.	.	.	.	.	.	.	.	.	.	.	.	.	.
8BB\J	8B/J	.	16g/	.	.	.	.	.	.	.	.	.	.	8B/J	.	8g\J	.	8b/J	.
.	.	.	16G/JJ	.	.	.	.	.	.	.	.	.	.	.	.	.	.	.	.
=61	=61	=61	=61	=61	=61	=61	=61	=61	=61	=61	=61	=61	=61	=61	=61	=61	=61	=61	=61
!	!	!	!	!	!LO:TX:t=P:problem=fermata na kresce taktowej	!	!	!	!	!	!	!	!	!	!	!	!	!	!
4GG/	4B/	.	4G/	.	2.r	.	.	2.r	.	.	2.r	.	.	4B/	.	4g\	.	4b/	.
4r	4r	.	4r	.	.	.	.	.	.	.	.	.	.	4r	.	4r	.	4r	.
!	!	!	!	!	!	!	!	!	!	!	!	!	!	!LO:TX:t=P:problem=fermata na kresce taktowej	!	!LO:TX:t=P:problem=fermata na kresce taktowej	!	!	!
!	!LO:TX:t=P:problem=fermata na kresce taktowej	!	!LO:TX:t=P:problem=fermata na kresce taktowej	!	!	!	!	!	!	!	!	!	!	!	!	!	!	!	!
4r	4r	.	4r	.	.	.	.	.	.	.	.	.	.	4r	.	4r	.	4r;	.
==	==	==	==	==	==	==	==	==	==	==	==	==	==	==	==	==	==	==	==
*-	*-	*-	*-	*-	*-	*-	*-	*-	*-	*-	*-	*-	*-	*-	*-	*-	*-	*-	*-
!!!system-decoration: (s1)[(g1)][(g2)][(g3)](s9)
!!!RDF**kern: > = above
!!!RDF**kern: < = below
!!!RDF**kern: | = vertical stroke
!!!RDF**dynam: p = pia&colon;
!!!RDF**dynam: f = for
!!!ENC: Katarzyna Serwa
!!!END: 2020-12-07
!!!ENC: Kamil Watkowski
!!!END: 2022-03-07
